status/48/image-loading.svg

<?xml version="1.0" encoding="UTF-8" standalone="no"?>
<!-- Created with Inkscape (http://www.inkscape.org/) -->

<svg
   xmlns:dc="http://purl.org/dc/elements/1.1/"
   xmlns:cc="http://creativecommons.org/ns#"
   xmlns:rdf="http://www.w3.org/1999/02/22-rdf-syntax-ns#"
   xmlns:svg="http://www.w3.org/2000/svg"
   xmlns="http://www.w3.org/2000/svg"
   xmlns:sodipodi="http://sodipodi.sourceforge.net/DTD/sodipodi-0.dtd"
   xmlns:inkscape="http://www.inkscape.org/namespaces/inkscape"
   version="1.0"
   width="48"
   height="48"
   id="svg6396"
   sodipodi:version="0.32"
   inkscape:version="0.47 r22583"
   sodipodi:docname="image-loading.svg"
   inkscape:output_extension="org.inkscape.output.svg.inkscape">
  <metadata
     id="metadata8">
    <rdf:RDF>
      <cc:Work
         rdf:about="">
        <dc:format>image/svg+xml</dc:format>
        <dc:type
           rdf:resource="http://purl.org/dc/dcmitype/StillImage" />
      </cc:Work>
    </rdf:RDF>
  </metadata>
  <sodipodi:namedview
     inkscape:window-height="691"
     inkscape:window-width="1278"
     inkscape:pageshadow="2"
     inkscape:pageopacity="0.0"
     guidetolerance="10.0"
     gridtolerance="10.0"
     objecttolerance="10.0"
     borderopacity="1.0"
     bordercolor="#666666"
     pagecolor="#ffffff"
     id="base"
     showgrid="false"
     inkscape:zoom="10.375"
     inkscape:cx="8.9241967"
     inkscape:cy="8.3855422"
     inkscape:window-x="0"
     inkscape:window-y="24"
     inkscape:current-layer="svg6396"
     inkscape:window-maximized="0" />
  <defs
     id="defs6398">
    <inkscape:perspective
       sodipodi:type="inkscape:persp3d"
       inkscape:vp_x="0 : 24 : 1"
       inkscape:vp_y="0 : 1000 : 0"
       inkscape:vp_z="48 : 24 : 1"
       inkscape:persp3d-origin="24 : 16 : 1"
       id="perspective10" />
  </defs>
  <path
     style="fill:none;fill-rule:evenodd;stroke:#ffffff;stroke-width:2;stroke-linecap:butt;stroke-linejoin:miter;stroke-miterlimit:4;stroke-dasharray:none;stroke-opacity:1;opacity:0.3"
     id="path2387"
     d="M 41,46 C 45,46 45,46 45,42 M 45,8 C 45,4 45,4.0000002 41,4.0000002 M 3,42 C 3,46 3,46 7,46 M 7,4 C 2.9999998,4 3,4 3,8" />
  <path
     style="fill:#ffffff;fill-opacity:1;fill-rule:evenodd;stroke:none;stroke-width:1px;stroke-linecap:butt;stroke-linejoin:miter;stroke-opacity:1;opacity:0.3"
     id="path2385"
     d="M 24.65625,18.5 L 23.65625,18.5 L 22.656251,25.5 L 27.65625,29.5 L 27.656251,28.5 L 24.656251,24.5 L 24.65625,18.5 z M 24,14 C 17.928,14 13,18.928 13,25 C 13,31.072 17.928,36 24,36 C 30.072,36 35,31.072 35,25 C 35,18.928 30.072,14 24,14 z M 24,16 C 28.968,16 33,20.032 33,25 C 33,29.968 28.968,34 24,34 C 19.032,34 15,29.968 15,25 C 15,20.032 19.032,16 24,16 z M 44,28 L 46,28 L 46,36 L 44,36 L 44,28 z M 44,14 L 46,14 L 46,22 L 44,22 L 44,14 z M 21,45 L 21,47 L 13,47 L 13,45 L 21,45 z M 35,45 L 35,47 L 27,47 L 27,45 L 35,45 z M 4.0000005,22 L 2.0000005,22 L 2.0000005,14 L 4.0000005,14 L 4.0000005,22 z M 4.0000005,36 L 2.0000005,36 L 2.0000005,28 L 4.0000005,28 L 4.0000005,36 z M 27,5.0000005 L 27,3.0000005 L 35,3.0000005 L 35,5.0000005 L 27,5.0000005 z M 13,5.0000005 L 13,3.0000005 L 21,3.0000005 L 21,5.0000005 L 13,5.0000005 z" />
  <path
     style="fill:#000000;fill-opacity:1;fill-rule:evenodd;stroke:none;opacity:0.5"
     id="path3318"
     d="m 24.65625,17.5 -1,0 -0.999999,7 4.999999,4 1e-6,-1 -3,-4 -1e-6,-6 z M 24,13 c -6.072,0 -11,4.928 -11,11 0,6.072 4.928,11 11,11 6.072,0 11,-4.928 11,-11 0,-6.072 -4.928,-11 -11,-11 z m 0,2 c 4.968,0 9,4.032 9,9 0,4.968 -4.032,9 -9,9 -4.968,0 -9,-4.032 -9,-9 0,-4.968 4.032,-9 9,-9 z m 20,12 2,0 0,8 -2,0 0,-8 z m 0,-14 2,0 0,8 -2,0 0,-8 z m -23,31 0,2 -8,0 0,-2 8,0 z m 14,0 0,2 -8,0 0,-2 8,0 z M 4.0000005,21 l -2,0 0,-8 2,0 0,8 z m 0,14 -2,0 0,-8 2,0 0,8 z M 27,4.0000005 l 0,-2 8,0 0,2 -8,0 z m -14,0 0,-2 8,0 0,2 -8,0 z" />
  <path
     style="fill:none;stroke:#000000;stroke-width:2;stroke-linecap:butt;stroke-linejoin:miter;stroke-miterlimit:4;stroke-opacity:1;stroke-dasharray:none;opacity:0.5"
     id="path6300"
     d="m 41,45 c 4,0 4,0 4,-4 M 45,7 C 45,3 45,3.0000002 41,3.0000002 M 3,41 c 0,4 0,4 4,4 M 7,3 C 2.9999998,3 3,3 3,7" />
</svg>

<?xml version="1.0" encoding="UTF-8" standalone="no"?>
<!-- Created with Inkscape (http://www.inkscape.org/) -->

<svg
   xmlns:dc="http://purl.org/dc/elements/1.1/"
   xmlns:cc="http://creativecommons.org/ns#"
   xmlns:rdf="http://www.w3.org/1999/02/22-rdf-syntax-ns#"
   xmlns:svg="http://www.w3.org/2000/svg"
   xmlns="http://www.w3.org/2000/svg"
   xmlns:inkscape="http://www.inkscape.org/namespaces/inkscape"
   version="1.0"
   width="48"
   height="48"
   id="svg6396">
  <metadata
     id="metadata8">
    <rdf:RDF>
      <cc:Work
         rdf:about="">
        <dc:format>image/svg+xml</dc:format>
        <dc:type
           rdf:resource="http://purl.org/dc/dcmitype/StillImage" />
      </cc:Work>
    </rdf:RDF>
  </metadata>
  <defs
     id="defs6398" />
  <path
     d="m 41,46 c 4,0 4,0 4,-4 M 45,8 C 45,4 45,4.0000002 41,4.0000002 M 3,42 c 0,4 0,4 4,4 M 7,4 C 2.9999998,4 3,4 3,8"
     inkscape:connector-curvature="0"
     id="path2387"
     style="opacity:0.3;fill:none;stroke:#ffffff;stroke-width:2;stroke-linecap:butt;stroke-linejoin:miter;stroke-miterlimit:4;stroke-opacity:1;stroke-dasharray:none" />
  <path
     d="m 24.65625,18.5 -1,0 -0.999999,7 4.999999,4 1e-6,-1 -3,-4 -1e-6,-6 z M 24,14 c -6.072,0 -11,4.928 -11,11 0,6.072 4.928,11 11,11 6.072,0 11,-4.928 11,-11 0,-6.072 -4.928,-11 -11,-11 z m 0,2 c 4.968,0 9,4.032 9,9 0,4.968 -4.032,9 -9,9 -4.968,0 -9,-4.032 -9,-9 0,-4.968 4.032,-9 9,-9 z m 20,12 2,0 0,8 -2,0 0,-8 z m 0,-14 2,0 0,8 -2,0 0,-8 z m -23,31 0,2 -8,0 0,-2 8,0 z m 14,0 0,2 -8,0 0,-2 8,0 z M 4.0000005,22 l -2,0 0,-8 2,0 0,8 z m 0,14 -2,0 0,-8 2,0 0,8 z M 27,5.0000005 l 0,-2 8,0 0,2 -8,0 z m -14,0 0,-2 8,0 0,2 -8,0 z"
     inkscape:connector-curvature="0"
     id="path2385"
     style="opacity:0.3;fill:#ffffff;fill-opacity:1;fill-rule:evenodd;stroke:none" />
  <path
     d="m 24.65625,17.5 -1,0 -0.999999,7 4.999999,4 1e-6,-1 -3,-4 -1e-6,-6 z M 24,13 c -6.072,0 -11,4.928 -11,11 0,6.072 4.928,11 11,11 6.072,0 11,-4.928 11,-11 0,-6.072 -4.928,-11 -11,-11 z m 0,2 c 4.968,0 9,4.032 9,9 0,4.968 -4.032,9 -9,9 -4.968,0 -9,-4.032 -9,-9 0,-4.968 4.032,-9 9,-9 z m 20,12 2,0 0,8 -2,0 0,-8 z m 0,-14 2,0 0,8 -2,0 0,-8 z m -23,31 0,2 -8,0 0,-2 8,0 z m 14,0 0,2 -8,0 0,-2 8,0 z M 4.0000005,21 l -2,0 0,-8 2,0 0,8 z m 0,14 -2,0 0,-8 2,0 0,8 z M 27,4.0000005 l 0,-2 8,0 0,2 -8,0 z m -14,0 0,-2 8,0 0,2 -8,0 z"
     inkscape:connector-curvature="0"
     id="path3318"
     style="opacity:0.5;fill:#000000;fill-opacity:1;fill-rule:evenodd;stroke:none" />
  <path
     d="m 41,45 c 4,0 4,0 4,-4 M 45,7 C 45,3 45,3.0000002 41,3.0000002 M 3,41 c 0,4 0,4 4,4 M 7,3 C 2.9999998,3 3,3 3,7"
     inkscape:connector-curvature="0"
     id="path6300"
     style="opacity:0.5;fill:none;stroke:#000000;stroke-width:2;stroke-linecap:butt;stroke-linejoin:miter;stroke-miterlimit:4;stroke-opacity:1;stroke-dasharray:none" />
</svg>
